X:1
T:Bolero
M:3/4
L:1/8
Z:Matthew Bowra-Dean, mbeedee@gmail.com
C:Maurice Ravel
Q:1/4=72
K:C
((c2c)B/2c/2 d/2c/2B/2A/2 |c)(c/2A/2 (c2c))(B/2c/2 |
A/2G/2E/2F/2 (G4 |G/2))(F/2E/2D/2 E/2F/2G/2A/2 (G2|(G2) G/2)A/2B/2A/2 G/2F/2E/2D/2)|(E/2D/2(C C))(C/2D/2 .E.F|
D2(G4|(G4)G))z|((d2d3/2)c/2 B/2A/2B/2c/2)|(d/2c/2(B B/2)c/2B/2A/2) (c/2B/2A/2(F/2|
F))(.F/2.F/2) (.F.A) (c/2A/2B/2G/2|F)(.F/2.F/2) (.F.A) (B/2G/2A/2F/2|D)(D/2C/2(D2D))(.D/2.D/2)|(.D.F) (A/2F/2G/2E/2 D)(D/2C/2|
(D2D))(D/2C/2 DE/2F/2|(G4 G/2)F/2E/2D/2|C)zz2z2|]
